exports/number-homeless-from-natural-disasters_v1_850x600.svg

<svg xmlns="http://www.w3.org/2000/svg" version="1.1" style="background-color:#fff;-webkit-font-smoothing:antialiased" width="850" height="600" font-family="'Helvetica Neue',Helvetica,Arial,sans-serif" font-size="18" text-rendering="optimizeLegibility"><g class="ChartTab"><g class="HeaderView"><g opacity=".8" transform="matrix(.31 0 0 .31 770 15)"><a xmlns:xlink="http://www.w3.org/1999/xlink" xlink:href="https://ourworldindata.org" target="_blank"><g><path fill="#1B2543" d="M0 0h211.2v130.1H0z"/><path fill="#E63912" d="M0 112.2h211.2v17.9H0z"/><g><path fill="none" d="M1.2 12.3h210.2v99.2H1.2z"/><path fill="#FFF" d="M37.8 32.2c0 12.7-7.7 19.4-17.1 19.4-9.7 0-16.6-7.5-16.6-18.7 0-11.7 7.3-19.3 17.1-19.3 10.1.1 16.6 7.7 16.6 18.6zm-28.6.6c0 7.9 4.3 14.9 11.8 14.9 7.5 0 11.8-6.9 11.8-15.3 0-7.3-3.8-14.9-11.8-14.9-7.9 0-11.8 7.3-11.8 15.3zM62.7 43.8c0 2.7.1 5.1.2 7.2h-4.3l-.3-4.3h-.1c-1.3 2.1-4 4.9-8.8 4.9-4.2 0-9.1-2.3-9.1-11.6V24.6h4.8v14.6c0 5 1.5 8.4 5.9 8.4 3.2 0 5.5-2.2 6.3-4.4.3-.7.4-1.6.4-2.5V24.6h4.8v19.2zM67.3 32.8c0-3.1-.1-5.8-.2-8.2h4.2l.2 5.2h.2c1.2-3.5 4.1-5.8 7.3-5.8.5 0 .9.1 1.4.2v4.5c-.5-.1-1-.2-1.6-.2-3.4 0-5.8 2.6-6.5 6.2-.1.7-.2 1.4-.2 2.2V51h-4.8V32.8zM95.4 51L86 14.2h5l4.4 18.6c1.1 4.6 2.1 9.2 2.7 12.7h.1c.6-3.7 1.8-8 3-12.8l4.9-18.5h5l4.5 18.7c1 4.4 2 8.7 2.6 12.6h.1c.8-4 1.8-8.1 3-12.7l4.9-18.5h4.9L120.6 51h-5L111 31.9c-1.1-4.7-1.9-8.3-2.4-12h-.1c-.7 3.7-1.5 7.3-2.8 12L100.4 51h-5zM154.9 37.6c0 9.8-6.8 14-13.2 14-7.2 0-12.7-5.2-12.7-13.6 0-8.8 5.8-14 13.1-14 7.7 0 12.8 5.5 12.8 13.6zm-21 .3c0 5.8 3.3 10.1 8 10.1 4.6 0 8-4.3 8-10.3 0-4.5-2.2-10.1-7.9-10.1s-8.1 5.2-8.1 10.3zM158.2 32.8c0-3.1-.1-5.8-.2-8.2h4.2l.2 5.2h.2c1.2-3.5 4.1-5.8 7.3-5.8.5 0 .9.1 1.4.2v4.5c-.5-.1-1-.2-1.6-.2-3.4 0-5.8 2.6-6.5 6.2-.1.7-.2 1.4-.2 2.2V51h-4.8V32.8zM173.5 12.3h4.8V51h-4.8V12.3zM206.5 12.3v31.9c0 2.3.1 5 .2 6.8h-4.3l-.2-4.6h-.2c-1.5 2.9-4.7 5.2-9 5.2-6.4 0-11.3-5.4-11.3-13.4-.1-8.8 5.4-14.2 11.9-14.2 4 0 6.8 1.9 8 4h.1V12.3h4.8zm-4.8 23.1c0-.6-.1-1.4-.2-2a7 7 0 00-6.9-5.6c-5 0-7.9 4.4-7.9 10.2 0 5.3 2.6 9.8 7.8 9.8 3.2 0 6.2-2.1 7.1-5.7.2-.7.2-1.3.2-2.1v-4.6zM42.8 64c.1 1.6-1.1 2.9-3.1 2.9-1.7 0-2.9-1.3-2.9-2.9 0-1.7 1.3-3 3-3 1.9 0 3 1.3 3 3zm-5.4 33.8V71.4h4.8v26.4h-4.8zM47.5 78.6c0-2.7-.1-5-.2-7.1h4.3l.3 4.4h.1c1.3-2.5 4.4-5 8.8-5 3.7 0 9.4 2.2 9.4 11.2v15.8h-4.8V82.6c0-4.3-1.6-7.8-6.1-7.8-3.2 0-5.6 2.2-6.5 4.9-.2.6-.3 1.4-.3 2.2v15.9h-4.8V78.6zM84 61.6c2.9-.4 6.3-.8 10.1-.8 6.8 0 11.7 1.6 14.9 4.6 3.3 3 5.2 7.3 5.2 13.2 0 6-1.9 10.9-5.3 14.3-3.4 3.4-9.1 5.3-16.3 5.3-3.4 0-6.2-.2-8.6-.4V61.6zm4.8 32.5c1.2.2 3 .3 4.8.3 10.2 0 15.7-5.7 15.7-15.6.1-8.7-4.9-14.2-14.9-14.2-2.5 0-4.3.2-5.6.5v29zM132.1 97.8l-.4-3.3h-.2a9.79 9.79 0 01-8.1 3.9c-5.4 0-8.1-3.8-8.1-7.6 0-6.4 5.7-9.9 15.9-9.8v-.5c0-2.2-.6-6.1-6-6.1-2.5 0-5 .8-6.9 2l-1.1-3.2c2.2-1.4 5.4-2.3 8.7-2.3 8.1 0 10.1 5.5 10.1 10.8v9.9c0 2.3.1 4.5.4 6.3h-4.3zm-.7-13.4c-5.3-.1-11.2.8-11.2 5.9 0 3.1 2.1 4.6 4.5 4.6 3.4 0 5.6-2.2 6.4-4.4.2-.5.3-1 .3-1.5v-4.6zM146.6 63.9v7.6h6.9v3.7h-6.9v14.2c0 3.3.9 5.1 3.6 5.1 1.3 0 2.2-.2 2.8-.3l.2 3.6c-.9.4-2.4.7-4.3.7-2.2 0-4-.7-5.2-2-1.4-1.4-1.9-3.8-1.9-6.9V75.1h-4.1v-3.7h4.1v-6.3l4.8-1.2zM171.4 97.8l-.4-3.3h-.2a9.79 9.79 0 01-8.1 3.9c-5.4 0-8.1-3.8-8.1-7.6 0-6.4 5.7-9.9 15.9-9.8v-.5c0-2.2-.6-6.1-6-6.1-2.5 0-5 .8-6.9 2l-1.1-3.2c2.2-1.4 5.4-2.3 8.7-2.3 8.1 0 10.1 5.5 10.1 10.8v9.9c0 2.3.1 4.5.4 6.3h-4.3zm-.7-13.4c-5.3-.1-11.2.8-11.2 5.9 0 3.1 2.1 4.6 4.5 4.6 3.4 0 5.6-2.2 6.4-4.4.2-.5.3-1 .3-1.5v-4.6z"/></g></g></a></g><a href="https://ourworldindata.org/grapher/number-homeless-from-natural-disasters" target="_blank"><text font-size="25.2" x="15" y="35.2" fill="#555"><tspan x="15" y="35.16">Number left homeless from natural disasters, All natural disasters</tspan></text></a><text font-size="14.4" x="15" y="53.7" fill="#666"><tspan x="15" y="53.72">Global number of people left homeless from natural disaster events. This is defined as &quot;number of people whose</tspan><tspan x="15" y="69.56">house is destroyed or heavily damaged and therefore need shelter after an event.&quot;</tspan></text></g><g class="LineChart"><defs><clipPath id="a"><path d="M78.53 0h830v899.6h-830z"/></clipPath></defs><g class="AxisBoxView"><g class="HorizontalAxis" fill="#666" text-anchor="middle" font-size="16.2"><text x="88.5" y="541.9">1911</text><text x="139.1" y="541.9">1920</text><text x="251.4" y="541.9">1940</text><text x="363.8" y="541.9">1960</text><text x="476.1" y="541.9">1980</text><text x="588.5" y="541.9">2000</text><text x="684" y="541.9">2017</text></g><g class="VerticalAxis" fill="#666" dominant-baseline="middle" text-anchor="end" font-size="16.2"><text x="83.53" y="447.9">5 million</text><text x="83.53" y="375">10 million</text><text x="83.53" y="302.2">15 million</text><text x="83.53" y="229.4">20 million</text><text x="83.53" y="156.6">25 million</text></g><g class="AxisGridLines" stroke="#ddd" stroke-dasharray="3,2"><path d="M88.53 447.9H684M88.53 375H684M88.53 302.2H684M88.53 229.4H684M88.53 156.6H684"/></g><g class="AxisGridLines" stroke="#ddd" stroke-dasharray="3,2"><path d="M139.1 520.7V92.1M251.4 520.7V92.1M363.8 520.7V92.1M476.1 520.7V92.1M588.5 520.7V92.1"/></g></g><g clip-path="url(#a)"><g class="HeightedLegend clickable"><g class="legendMark"><path fill="#3360a9" d="M694 514.85h10v2.5h-10z"/><text font-size="14.4" x="709" y="520.4" fill="#333"><tspan x="709" y="520.42">All natural disasters</tspan></text></g></g><g class="Lines"><g class="key-All-natural-disasters_0"><path stroke="#3360a9" stroke-linecap="round" d="M89 521l5-2 56 2 6-1 6 1 11-1 11 1h23l5-53 17 51 11 2h11l23-1 6 1 28-1 5-2 12 3 5-2 6-4 5 5 23 1h17l5-3 6-72 6 44 5 26 6-10 5 13 6-7 6-22 5 14 6 15 5-29 6-72 6 78 5-65 6 86 6-5 5-31 6 35 5-11 6-5 6-7 5-3 6-36 6 43 5-57 6 50 5 3 6-72 6 31 5 51 6-118 5 51 6-17 6 53 5-380 6 333 6 70 5-20 6 41 5-37 6 4 6-54 5 1 6 74 5-30 6 39 6-28 5 7 6 15 6 9 5-15 6 11 5-27 6 31" fill="none" stroke-width="1.5"/><g fill="#3360a9"><circle cx="89" cy="521" r="2"/><circle cx="94" cy="519" r="2"/><circle cx="150" cy="521" r="2"/><circle cx="156" cy="520" r="2"/><circle cx="162" cy="521" r="2"/><circle cx="173" cy="520" r="2"/><circle cx="184" cy="521" r="2"/><circle cx="207" cy="521" r="2"/><circle cx="212" cy="468" r="2"/><circle cx="229" cy="519" r="2"/><circle cx="240" cy="521" r="2"/><circle cx="246" cy="521" r="2"/><circle cx="251" cy="521" r="2"/><circle cx="274" cy="520" r="2"/><circle cx="280" cy="521" r="2"/><circle cx="308" cy="520" r="2"/><circle cx="313" cy="518" r="2"/><circle cx="325" cy="521" r="2"/><circle cx="330" cy="519" r="2"/><circle cx="336" cy="515" r="2"/><circle cx="341" cy="520" r="2"/><circle cx="364" cy="521" r="2"/><circle cx="369" cy="521" r="2"/><circle cx="381" cy="521" r="2"/><circle cx="386" cy="518" r="2"/><circle cx="392" cy="446" r="2"/><circle cx="398" cy="490" r="2"/><circle cx="403" cy="516" r="2"/><circle cx="409" cy="506" r="2"/><circle cx="414" cy="519" r="2"/><circle cx="420" cy="512" r="2"/><circle cx="426" cy="490" r="2"/><circle cx="431" cy="504" r="2"/><circle cx="437" cy="519" r="2"/><circle cx="442" cy="490" r="2"/><circle cx="448" cy="418" r="2"/><circle cx="454" cy="496" r="2"/><circle cx="459" cy="431" r="2"/><circle cx="465" cy="517" r="2"/><circle cx="471" cy="512" r="2"/><circle cx="476" cy="481" r="2"/><circle cx="482" cy="516" r="2"/><circle cx="487" cy="505" r="2"/><circle cx="493" cy="500" r="2"/><circle cx="499" cy="493" r="2"/><circle cx="504" cy="490" r="2"/><circle cx="510" cy="454" r="2"/><circle cx="516" cy="497" r="2"/><circle cx="521" cy="440" r="2"/><circle cx="527" cy="490" r="2"/><circle cx="532" cy="493" r="2"/><circle cx="538" cy="421" r="2"/><circle cx="544" cy="452" r="2"/><circle cx="549" cy="503" r="2"/><circle cx="555" cy="385" r="2"/><circle cx="560" cy="436" r="2"/><circle cx="566" cy="419" r="2"/><circle cx="572" cy="472" r="2"/><circle cx="577" cy="92" r="2"/><circle cx="583" cy="425" r="2"/><circle cx="589" cy="495" r="2"/><circle cx="594" cy="475" r="2"/><circle cx="600" cy="516" r="2"/><circle cx="605" cy="479" r="2"/><circle cx="611" cy="483" r="2"/><circle cx="617" cy="429" r="2"/><circle cx="622" cy="430" r="2"/><circle cx="628" cy="504" r="2"/><circle cx="633" cy="474" r="2"/><circle cx="639" cy="513" r="2"/><circle cx="645" cy="485" r="2"/><circle cx="650" cy="492" r="2"/><circle cx="656" cy="507" r="2"/><circle cx="662" cy="516" r="2"/><circle cx="667" cy="501" r="2"/><circle cx="673" cy="512" r="2"/><circle cx="678" cy="485" r="2"/><circle cx="684" cy="516" r="2"/></g></g></g></g></g><g class="SourcesFooter" fill="#777"><g class="clickable" fill="#777"><text font-size="12.6" x="15" y="567"><tspan x="15" y="566.98">Source: EMDAT (2017): OFDA/CRED International Disaster Database, Université catholique de Louvain – Brussels – Belgium</tspan></text></g><text font-size="12.6" x="15" y="582.5"><tspan x="15" y="582.48"><a target="_blank" href="https://ourworldindata.org/natural-catastrophes/" fill="#777">OurWorldInData.org/natural-catastrophes/</a> • <a href="http://creativecommons.org/licenses/by-sa/4.0/deed.en_US" target="_blank" fill="#777">CC BY-SA</a></tspan></text></g></g></svg>

<svg xmlns="http://www.w3.org/2000/svg" version="1.1" style="font-family: 'Helvetica Neue', Helvetica, Arial, sans-serif; font-size: 18px; background-color: white; text-rendering: optimizeLegibility; -webkit-font-smoothing: antialiased;" width="850" height="600"><g class="ChartTab"><g class="HeaderView"><g opacity="0.8" transform="translate(770, 15) scale(0.31)"><a xmlns:xlink="http://www.w3.org/1999/xlink" xlink:href="https://ourworldindata.org" target="_blank"><g><rect x="0" y="0" fill="#1B2543" width="211.2" height="130.1"/><rect x="0" y="112.2" fill="#E63912" width="211.2" height="17.9"/><g><rect x="1.2" y="12.3" fill="none" width="210.2" height="99.2"/><path fill="#FFFFFF" d="M37.8,32.2c0,12.7-7.7,19.4-17.1,19.4c-9.7,0-16.6-7.5-16.6-18.7c0-11.7,7.3-19.3,17.1-19.3 C31.3,13.7,37.8,21.3,37.8,32.2z M9.2,32.8c0,7.9,4.3,14.9,11.8,14.9c7.5,0,11.8-6.9,11.8-15.3c0-7.3-3.8-14.9-11.8-14.9 C13.1,17.5,9.2,24.8,9.2,32.8z"/><path fill="#FFFFFF" d="M62.7,43.8c0,2.7,0.1,5.1,0.2,7.2h-4.3l-0.3-4.3h-0.1c-1.3,2.1-4,4.9-8.8,4.9c-4.2,0-9.1-2.3-9.1-11.6 V24.6h4.8v14.6c0,5,1.5,8.4,5.9,8.4c3.2,0,5.5-2.2,6.3-4.4c0.3-0.7,0.4-1.6,0.4-2.5V24.6h4.8V43.8z"/><path fill="#FFFFFF" d="M67.3,32.8c0-3.1-0.1-5.8-0.2-8.2h4.2l0.2,5.2h0.2c1.2-3.5,4.1-5.8,7.3-5.8c0.5,0,0.9,0.1,1.4,0.2v4.5 c-0.5-0.1-1-0.2-1.6-0.2c-3.4,0-5.8,2.6-6.5,6.2c-0.1,0.7-0.2,1.4-0.2,2.2V51h-4.8V32.8z"/><path fill="#FFFFFF" d="M95.4,51l-9.4-36.8h5l4.4,18.6c1.1,4.6,2.1,9.2,2.7,12.7h0.1c0.6-3.7,1.8-8,3-12.8l4.9-18.5h5l4.5,18.7 c1,4.4,2,8.7,2.6,12.6h0.1c0.8-4,1.8-8.1,3-12.7l4.9-18.5h4.9L120.6,51h-5L111,31.9c-1.1-4.7-1.9-8.3-2.4-12h-0.1 c-0.7,3.7-1.5,7.3-2.8,12L100.4,51H95.4z"/><path fill="#FFFFFF" d="M154.9,37.6c0,9.8-6.8,14-13.2,14c-7.2,0-12.7-5.2-12.7-13.6c0-8.8,5.8-14,13.1-14 C149.8,24,154.9,29.5,154.9,37.6z M133.9,37.9c0,5.8,3.3,10.1,8,10.1c4.6,0,8-4.3,8-10.3c0-4.5-2.2-10.1-7.9-10.1 C136.3,27.6,133.9,32.8,133.9,37.9z"/><path fill="#FFFFFF" d="M158.2,32.8c0-3.1-0.1-5.8-0.2-8.2h4.2l0.2,5.2h0.2c1.2-3.5,4.1-5.8,7.3-5.8c0.5,0,0.9,0.1,1.4,0.2v4.5 c-0.5-0.1-1-0.2-1.6-0.2c-3.4,0-5.8,2.6-6.5,6.2c-0.1,0.7-0.2,1.4-0.2,2.2V51h-4.8V32.8z"/><path fill="#FFFFFF" d="M173.5,12.3h4.8V51h-4.8V12.3z"/><path fill="#FFFFFF" d="M206.5,12.3v31.9c0,2.3,0.1,5,0.2,6.8h-4.3l-0.2-4.6H202c-1.5,2.9-4.7,5.2-9,5.2 c-6.4,0-11.3-5.4-11.3-13.4c-0.1-8.8,5.4-14.2,11.9-14.2c4,0,6.8,1.9,8,4h0.1V12.3H206.5z M201.7,35.4c0-0.6-0.1-1.4-0.2-2 c-0.7-3.1-3.3-5.6-6.9-5.6c-5,0-7.9,4.4-7.9,10.2c0,5.3,2.6,9.8,7.8,9.8c3.2,0,6.2-2.1,7.1-5.7c0.2-0.7,0.2-1.3,0.2-2.1V35.4z"/><path fill="#FFFFFF" d="M42.8,64c0.1,1.6-1.1,2.9-3.1,2.9c-1.7,0-2.9-1.3-2.9-2.9c0-1.7,1.3-3,3-3C41.7,61,42.8,62.3,42.8,64z M37.4,97.8V71.4h4.8v26.4H37.4z"/><path fill="#FFFFFF" d="M47.5,78.6c0-2.7-0.1-5-0.2-7.1h4.3l0.3,4.4h0.1c1.3-2.5,4.4-5,8.8-5c3.7,0,9.4,2.2,9.4,11.2v15.8h-4.8 V82.6c0-4.3-1.6-7.8-6.1-7.8c-3.2,0-5.6,2.2-6.5,4.9c-0.2,0.6-0.3,1.4-0.3,2.2v15.9h-4.8V78.6z"/><path fill="#FFFFFF" d="M84,61.6c2.9-0.4,6.3-0.8,10.1-0.8c6.8,0,11.7,1.6,14.9,4.6c3.3,3,5.2,7.3,5.2,13.2c0,6-1.9,10.9-5.3,14.3 c-3.4,3.4-9.1,5.3-16.3,5.3c-3.4,0-6.2-0.2-8.6-0.4V61.6z M88.8,94.1c1.2,0.2,3,0.3,4.8,0.3c10.2,0,15.7-5.7,15.7-15.6 c0.1-8.7-4.9-14.2-14.9-14.2c-2.5,0-4.3,0.2-5.6,0.5V94.1z"/><path fill="#FFFFFF" d="M132.1,97.8l-0.4-3.3h-0.2c-1.5,2.1-4.3,3.9-8.1,3.9c-5.4,0-8.1-3.8-8.1-7.6c0-6.4,5.7-9.9,15.9-9.8v-0.5 c0-2.2-0.6-6.1-6-6.1c-2.5,0-5,0.8-6.9,2l-1.1-3.2c2.2-1.4,5.4-2.3,8.7-2.3c8.1,0,10.1,5.5,10.1,10.8v9.9c0,2.3,0.1,4.5,0.4,6.3 H132.1z M131.4,84.4c-5.3-0.1-11.2,0.8-11.2,5.9c0,3.1,2.1,4.6,4.5,4.6c3.4,0,5.6-2.2,6.4-4.4c0.2-0.5,0.3-1,0.3-1.5V84.4z"/><path fill="#FFFFFF" d="M146.6,63.9v7.6h6.9v3.7h-6.9v14.2c0,3.3,0.9,5.1,3.6,5.1c1.3,0,2.2-0.2,2.8-0.3l0.2,3.6 c-0.9,0.4-2.4,0.7-4.3,0.7c-2.2,0-4-0.7-5.2-2c-1.4-1.4-1.9-3.8-1.9-6.9V75.1h-4.1v-3.7h4.1v-6.3L146.6,63.9z"/><path fill="#FFFFFF" d="M171.4,97.8l-0.4-3.3h-0.2c-1.5,2.1-4.3,3.9-8.1,3.9c-5.4,0-8.1-3.8-8.1-7.6c0-6.4,5.7-9.9,15.9-9.8v-0.5 c0-2.2-0.6-6.1-6-6.1c-2.5,0-5,0.8-6.9,2l-1.1-3.2c2.2-1.4,5.4-2.3,8.7-2.3c8.1,0,10.1,5.5,10.1,10.8v9.9c0,2.3,0.1,4.5,0.4,6.3 H171.4z M170.7,84.4c-5.3-0.1-11.2,0.8-11.2,5.9c0,3.1,2.1,4.6,4.5,4.6c3.4,0,5.6-2.2,6.4-4.4c0.2-0.5,0.3-1,0.3-1.5V84.4z"/></g></g></a></g><a href="https://ourworldindata.org/grapher/number-homeless-from-natural-disasters" target="_blank"><text font-size="25.20" x="15.0" y="35.2" fill="#555"><tspan x="15" y="35.160000000000004">Number left homeless from natural disasters, All natural disasters</tspan></text></a><text font-size="14.40" x="15.0" y="53.7" fill="#666"><tspan x="15" y="53.72">Global number of people left homeless from natural disaster events. This is defined as &quot;number of people whose</tspan><tspan x="15" y="69.56">house is destroyed or heavily damaged and therefore need shelter after an event.&quot;</tspan></text></g><g class="LineChart"><defs><clipPath id="boundsClip-375"><rect x="78.526" y="0" width="830" height="899.5999999999999"></rect></clipPath></defs><g class="AxisBoxView"><g class="HorizontalAxis"><text x="88.5" y="541.9" fill="#666" text-anchor="middle" font-size="16.2">1911</text><text x="139.1" y="541.9" fill="#666" text-anchor="middle" font-size="16.2">1920</text><text x="251.4" y="541.9" fill="#666" text-anchor="middle" font-size="16.2">1940</text><text x="363.8" y="541.9" fill="#666" text-anchor="middle" font-size="16.2">1960</text><text x="476.1" y="541.9" fill="#666" text-anchor="middle" font-size="16.2">1980</text><text x="588.5" y="541.9" fill="#666" text-anchor="middle" font-size="16.2">2000</text><text x="684" y="541.9" fill="#666" text-anchor="middle" font-size="16.2">2017</text></g><g class="VerticalAxis"><text x="83.53" y="447.9" fill="#666" dominant-baseline="middle" text-anchor="end" font-size="16.2">5 million</text><text x="83.53" y="375" fill="#666" dominant-baseline="middle" text-anchor="end" font-size="16.2">10 million</text><text x="83.53" y="302.2" fill="#666" dominant-baseline="middle" text-anchor="end" font-size="16.2">15 million</text><text x="83.53" y="229.4" fill="#666" dominant-baseline="middle" text-anchor="end" font-size="16.2">20 million</text><text x="83.53" y="156.6" fill="#666" dominant-baseline="middle" text-anchor="end" font-size="16.2">25 million</text></g><g class="AxisGridLines"><line x1="88.53" y1="447.9" x2="684.00" y2="447.9" stroke="#ddd" stroke-dasharray="3,2"></line><line x1="88.53" y1="375" x2="684.00" y2="375" stroke="#ddd" stroke-dasharray="3,2"></line><line x1="88.53" y1="302.2" x2="684.00" y2="302.2" stroke="#ddd" stroke-dasharray="3,2"></line><line x1="88.53" y1="229.4" x2="684.00" y2="229.4" stroke="#ddd" stroke-dasharray="3,2"></line><line x1="88.53" y1="156.6" x2="684.00" y2="156.6" stroke="#ddd" stroke-dasharray="3,2"></line></g><g class="AxisGridLines"><line x1="139.1" y1="520.70" x2="139.1" y2="92.10" stroke="#ddd" stroke-dasharray="3,2"></line><line x1="251.4" y1="520.70" x2="251.4" y2="92.10" stroke="#ddd" stroke-dasharray="3,2"></line><line x1="363.8" y1="520.70" x2="363.8" y2="92.10" stroke="#ddd" stroke-dasharray="3,2"></line><line x1="476.1" y1="520.70" x2="476.1" y2="92.10" stroke="#ddd" stroke-dasharray="3,2"></line><line x1="588.5" y1="520.70" x2="588.5" y2="92.10" stroke="#ddd" stroke-dasharray="3,2"></line></g></g><g clip-path="url(#boundsClip-375)"><g class="HeightedLegend clickable"><g class="legendMark"><rect x="694" y="508.90000000000003" width="141" height="14.4" fill="#fff" opacity="0"></rect><rect x="694" y="514.85" width="10" height="2.5" fill="#3360a9"></rect><text font-size="14.40" x="709.0" y="520.4" fill="#333"><tspan x="709" y="520.4200000000001">All natural disasters</tspan></text></g></g><g class="Lines"><rect x="89" y="92" width="595" height="429" fill="rgba(255,255,255,0)" opacity="0"></rect><g class="key-All-natural-disasters_0"><path stroke="#3360a9" stroke-linecap="round" d="M89 521L94 519L150 521L156 520L162 521L173 520L184 521L207 521L212 468L229 519L240 521L246 521L251 521L274 520L280 521L308 520L313 518L325 521L330 519L336 515L341 520L364 521L369 521L381 521L386 518L392 446L398 490L403 516L409 506L414 519L420 512L426 490L431 504L437 519L442 490L448 418L454 496L459 431L465 517L471 512L476 481L482 516L487 505L493 500L499 493L504 490L510 454L516 497L521 440L527 490L532 493L538 421L544 452L549 503L555 385L560 436L566 419L572 472L577 92L583 425L589 495L594 475L600 516L605 479L611 483L617 429L622 430L628 504L633 474L639 513L645 485L650 492L656 507L662 516L667 501L673 512L678 485L684 516" fill="none" stroke-width="1.5"></path><g fill="#3360a9"><circle cx="89" cy="521" r="2"></circle><circle cx="94" cy="519" r="2"></circle><circle cx="150" cy="521" r="2"></circle><circle cx="156" cy="520" r="2"></circle><circle cx="162" cy="521" r="2"></circle><circle cx="173" cy="520" r="2"></circle><circle cx="184" cy="521" r="2"></circle><circle cx="207" cy="521" r="2"></circle><circle cx="212" cy="468" r="2"></circle><circle cx="229" cy="519" r="2"></circle><circle cx="240" cy="521" r="2"></circle><circle cx="246" cy="521" r="2"></circle><circle cx="251" cy="521" r="2"></circle><circle cx="274" cy="520" r="2"></circle><circle cx="280" cy="521" r="2"></circle><circle cx="308" cy="520" r="2"></circle><circle cx="313" cy="518" r="2"></circle><circle cx="325" cy="521" r="2"></circle><circle cx="330" cy="519" r="2"></circle><circle cx="336" cy="515" r="2"></circle><circle cx="341" cy="520" r="2"></circle><circle cx="364" cy="521" r="2"></circle><circle cx="369" cy="521" r="2"></circle><circle cx="381" cy="521" r="2"></circle><circle cx="386" cy="518" r="2"></circle><circle cx="392" cy="446" r="2"></circle><circle cx="398" cy="490" r="2"></circle><circle cx="403" cy="516" r="2"></circle><circle cx="409" cy="506" r="2"></circle><circle cx="414" cy="519" r="2"></circle><circle cx="420" cy="512" r="2"></circle><circle cx="426" cy="490" r="2"></circle><circle cx="431" cy="504" r="2"></circle><circle cx="437" cy="519" r="2"></circle><circle cx="442" cy="490" r="2"></circle><circle cx="448" cy="418" r="2"></circle><circle cx="454" cy="496" r="2"></circle><circle cx="459" cy="431" r="2"></circle><circle cx="465" cy="517" r="2"></circle><circle cx="471" cy="512" r="2"></circle><circle cx="476" cy="481" r="2"></circle><circle cx="482" cy="516" r="2"></circle><circle cx="487" cy="505" r="2"></circle><circle cx="493" cy="500" r="2"></circle><circle cx="499" cy="493" r="2"></circle><circle cx="504" cy="490" r="2"></circle><circle cx="510" cy="454" r="2"></circle><circle cx="516" cy="497" r="2"></circle><circle cx="521" cy="440" r="2"></circle><circle cx="527" cy="490" r="2"></circle><circle cx="532" cy="493" r="2"></circle><circle cx="538" cy="421" r="2"></circle><circle cx="544" cy="452" r="2"></circle><circle cx="549" cy="503" r="2"></circle><circle cx="555" cy="385" r="2"></circle><circle cx="560" cy="436" r="2"></circle><circle cx="566" cy="419" r="2"></circle><circle cx="572" cy="472" r="2"></circle><circle cx="577" cy="92" r="2"></circle><circle cx="583" cy="425" r="2"></circle><circle cx="589" cy="495" r="2"></circle><circle cx="594" cy="475" r="2"></circle><circle cx="600" cy="516" r="2"></circle><circle cx="605" cy="479" r="2"></circle><circle cx="611" cy="483" r="2"></circle><circle cx="617" cy="429" r="2"></circle><circle cx="622" cy="430" r="2"></circle><circle cx="628" cy="504" r="2"></circle><circle cx="633" cy="474" r="2"></circle><circle cx="639" cy="513" r="2"></circle><circle cx="645" cy="485" r="2"></circle><circle cx="650" cy="492" r="2"></circle><circle cx="656" cy="507" r="2"></circle><circle cx="662" cy="516" r="2"></circle><circle cx="667" cy="501" r="2"></circle><circle cx="673" cy="512" r="2"></circle><circle cx="678" cy="485" r="2"></circle><circle cx="684" cy="516" r="2"></circle></g></g></g></g></g><g style="fill: #777;" class="SourcesFooter"><g style="fill: #777;" class="clickable"><text font-size="12.60" x="15.0" y="567.0"><tspan x="15" y="566.98">Source: EMDAT (2017): OFDA/CRED International Disaster Database, Université catholique de Louvain – Brussels – Belgium</tspan></text></g><text font-size="12.60" x="15.0" y="582.5"><tspan x="15" y="582.48"><a target='_blank' style='fill: #777;' href='https://ourworldindata.org/natural-catastrophes/'>OurWorldInData.org/natural-catastrophes/</a> • <a style="fill: #777;" href="http://creativecommons.org/licenses/by-sa/4.0/deed.en_US" target="_blank">CC BY-SA</a></tspan></text></g></g></svg>
